X:1
T:Title
%%score { ( 1 4 ) | ( 2 3 ) }
L:1/8
M:4/4
K:A
V:1 treble nm="Grand Piano"
V:4 treble 
V:2 bass 
V:3 bass 
V:1
 z4 z2[Q:1/4=100] [CE]2 | [CA]2 [CA]2 [CA]2 [EG][DF] | [CE]3 [B,D] [A,C]2 [CE]2 | F2 A2 G2 AB | %4
[M:3/4] [CA]6 |[M:1/4] [CE]2 |[M:4/4] [CA]2 [CA]2 [CA]2 [EG]F | %7
 [A,CE]3 [E,B,D] [E,A,C]2[K:treble] [A,CE]2 | [A,DF]2 [A,^DA]2 [B,=DG]2 [A,CA][DB] |[M:3/4] [CA]6 | %10
[M:1/4] [CE]2 |[M:4/4] [Ec]2 [Ec]2 [Ec][CA][Fd]c | c3 B B2 E2 | B3 c d2 d2 |[M:3/4] d2 c4 | %15
[M:1/4] [CE]2 |[M:4/4] [CA]2 [CA]2 [CA][DG]E-[EB] |[M:9/8] c2 d- d e2- eAA | %18
[M:4/4] [EAc]3 [CEA] [B,EG]2 [DEB]2 |[M:3/4] [DEB]2 [CEA]4 |] %20
V:2
 z4 z2 [A,,E,]2 | [A,,E,]2 [A,,E,]2 [A,,E,]2 [A,,A,]2 | [A,,A,]3 [A,,E,] [A,,E,]2 [A,,A,]2 | %3
 [D,A,D]2 [D,F,D]2 [E,B,]2 CD |[M:3/4] [A,,E,]6 |[M:1/4] [A,,E,]2 |[M:4/4] z4 z2 [A,,A,]2 | %7
 A,,3 A,, A,,2 A,,2 | z4 z2 E,2 |[M:3/4] [A,,A,]6 |[M:1/4] [A,,A,]2 | %11
[M:4/4] [A,,A,]2 [A,,A,]2 [A,,A,]2 z E | [E,A,E]3 [E,G,E] [E,G,E]2 [E,G,]2 | %13
 [E,G,E]3 [E,A,E] [E,B,E]2 [E,B,E]2 |[M:3/4] [A,B,E]2 [A,E]4 |[M:1/4] [A,,A,]2 |[M:4/4] z4 E,2 z2 | %17
[M:9/8][K:treble] [A,E]2 [A,B,E]- [A,B,E] [A,CA]2- [A,CA][K:bass][A,C][A,C] | %18
[M:4/4] E,3 E, E,2 E,2 |[M:3/4] A,,2 A,,4 |] %20
V:3
 x8 | x8 | x8 | z4 z2 E,2 |[M:3/4] x6 |[M:1/4] x2 |[M:4/4] [A,,E,]2 [A,,E,]2 [A,,E,]2 z D | x8 | %8
 D,2 B,,2 E,2 z G, |[M:3/4] x6 |[M:1/4] x2 |[M:4/4] z4 z2 [A,,A,]2 | x8 | x8 |[M:3/4] x6 | %15
[M:1/4] x2 |[M:4/4] [A,,E,]2 [A,,E,]2 A,,B,,C,[E,G,] |[M:9/8][K:treble] x7[K:bass] x2 |[M:4/4] x8 | %19
[M:3/4] x6 |] %20
V:4
 x8 | x8 | x8 | x8 |[M:3/4] x6 |[M:1/4] x2 |[M:4/4] x8 | x6[K:treble] x2 | x8 |[M:3/4] x6 | %10
[M:1/4] x2 |[M:4/4] x8 | x8 | x8 |[M:3/4] x6 |[M:1/4] x2 |[M:4/4] z4 z2 .[A,A]2 |[M:9/8] x9 | %18
[M:4/4] x8 |[M:3/4] x6 |] %20

